svgs/light/treasure-chest.svg

<svg xmlns="http://www.w3.org/2000/svg" viewBox="0 0 576 512"><!-- Font Awesome Pro 5.15.3 by @fontawesome - https://fontawesome.com License - https://fontawesome.com/license (Commercial License) --><path d="M480 32H96C42.98 32 0 74.98 0 128v320c0 17.67 14.33 32 32 32h512c17.67 0 32-14.33 32-32V128c0-53.02-42.98-96-96-96zM96 448H32V288h64v160zm0-192H32V128c0-35.29 28.71-64 64-64v192zm352 192H128V288h64v48c0 26.47 21.53 48 48 48h96c26.47 0 48-21.53 48-48v-48h64v160zM224 336V208c0-8.84 7.16-16 16-16h96c8.84 0 16 7.16 16 16v128c0 8.84-7.16 16-16 16h-96c-8.84 0-16-7.16-16-16zm224-80h-64v-48c0-26.47-21.53-48-48-48h-96c-26.47 0-48 21.53-48 48v48h-64V64h320v192zm96 192h-64V288h64v160zm0-192h-64V64c35.29 0 64 28.71 64 64v128zm-256 64c8.84 0 16-7.16 16-16v-64c0-8.84-7.16-16-16-16s-16 7.16-16 16v64c0 8.84 7.16 16 16 16z"/></svg>

<svg xmlns="http://www.w3.org/2000/svg" viewBox="0 0 576 512"><!--! Font Awesome Pro 6.0.0-alpha3 by @fontawesome - https://fontawesome.com License - https://fontawesome.com/license (Commercial License) --><path d="M448 32H128C57.31 32 0 89.31 0 160v256c0 35.35 28.65 64 64 64h448c35.35 0 64-28.65 64-64V160C576 89.31 518.7 32 448 32zM96 448H64c-17.64 0-32-14.36-32-32V288h64V448zM96 256H32V160c0-41.66 26.84-76.85 64-90.1V256zM448 448H128V288h64v48C192 362.5 213.5 384 240 384h96c26.5 0 48-21.5 48-48V288h64V448zM224 336v-128C224 199.1 231.1 192 240 192h96C344.9 192 352 199.1 352 208v128c0 8.875-7.125 16-16 16h-96C231.1 352 224 344.9 224 336zM448 256h-64V208C384 181.5 362.5 160 336 160h-96C213.5 160 192 181.5 192 208V256H128V64h320V256zM544 416c0 17.64-14.36 32-32 32h-32V288h64V416zM544 256h-64V69.9C517.2 83.15 544 118.3 544 160V256zM288 320c8.875 0 16-7.125 16-16v-64C304 231.1 296.9 224 288 224S272 231.1 272 240v64C272 312.9 279.1 320 288 320z"/></svg>
